!!!!SEGMENT: pl-kk--kk-i-10--022-003_anonim--missa-alia-paschalis-patrem.krn
!!!cenid: 16xx:1224
!!!COM: Anonim
!!!COM-rismid: pe30004985
!!!CDT:
!!!CNT:
!!!OTL: Missa alia Paschalis – Patrem
!!!PDT:
!!!AGN: Sacred; Mass
!!!SMS-siglum: PL-Kk
!!!SMS-shelfmark: Kk.I.10
!!!SMS-shelfwork: 022-003 M
!!!SMS-variant:
!!!SMS-altvar:
!!!NIFC-rismid: 1001154103
!!!system-decoration: [(s1,s2,s3)]
**kern	**text	**kern	**text	**kern	**text
*part3	*part3	*part2	*part2	*part1	*part1
*staff3	*staff3	*staff2	*staff2	*staff1	*staff1
*I"Basso	*	*I"Tenore	*	*I"Alto	*
*I'B.	*	*I'T.	*	*I'A.	*
*clefF4	*	*clefC4	*	*clefC3	*
*k[b-]	*	*k[b-]	*	*k[b-]	*
*g:	*	*g:	*	*g:	*
*M3/1	*	*M3/1	*	*M3/1	*
=1-	=1-	=1-	=1-	=1-	=1-
!LO:TX:t=P:problem:w źródle inicjał P na początku pięciolinii	!	!	!	!	!
!	!	!LO:TX:t=P:problem:w źródle inicjał P na początku pięciolinii	!	!LO:TX:t=P:problem:w źródle inicjał P na początku pięciolinii	!
0G	Pa-	0G	Pa-	0d	Pa-
1G	-tr(em)	1B-	-tr(em)	1d	-tr(em)
=2-	=2-	=2-	=2-	=2-	=2-
1F	om-	1c	om-	1f	om-
*col	*	*	*	*	*
1.G	-ni-	1.B-	-ni-	1.d	-ni-
*Xcol	*	*	*	*	*
2G\	-po-	2B-\	-po-	2d\	-po-
=3-	=3-	=3-	=3-	=3-	=3-
0D	-ten-	0A	-ten-	0f	-ten-
1D	-t(em)	1A	-t(em)	1f	-t(em)
=4-	=4-	=4-	=4-	=4-	=4-
0E-X	fac-	0G	fac-	0e-X	fac-
1BB-	-to-	1F	-to-	1d	-to-
=5-	=5-	=5-	=5-	=5-	=5-
0C	-r(em)	0c	-r(em)	0e-X	-r(em)
1G	fac-	1B-	cae-	1d	cae-
=6-	=6-	=6-	=6-	=6-	=6-
0D	-to-	0A	-li	0d	-li
1D	-r(em)	1F	cae-	1d	Cae-
=7-	=7-	=7-	=7-	=7-	=7-
0BB-	Cae-	0F	-li	0d	-li
!	!	!LO:TX:a:t=P:problem:♭ above	!	!	!
1C	-li	1E-Xi	et	1e-X	et
=8-	=8-	=8-	=8-	=8-	=8-
1GG	et	1G	ter-	0.d	ter-
*	*	*lig	*	*	*
0D	ter-	1G	.	.	.
.	.	1F	.	.	.
*	*	*Xlig	*	*	*
=9-	=9-	=9-	=9-	=9-	=9-
1GG	-rae	1G	-rae	1d	-rae
1G	Vi-	1B-	vi-	1d	vi-
1G	-ſi-	1B-	-ſi-	1d	-ſi-
=10-	=10-	=10-	=10-	=10-	=10-
1.G	-bi-	1.G	-bi-	1.d	-bi-
2G\	-li-	2G/	-li-	2d\	-li-
!	!	!LO:SIC:v:t=custos G	!	!	!
1F	-u(m)	1A	-(um)	1d	-um
!	!	!LO:LB:g=original	!	!LO:LB:g=original	!
=11-	=11-	=11-	=11-	=11-	=11-
!	!	!	!	!LO:TX:a:t=P:w źródle fragment tekstu niewidoczny:problem	!
(1G	o-	1G	o-	1d	[o-
1.E-X)	.	1.c	.	1.g	.
2E-\	-mni-	2c\	-mni-	2g\	-mni-
=12-	=12-	=12-	=12-	=12-	=12-
1D	-(um)	1A	-(um)	1f	-um
1D	et	1A	et	1f	et
1D	in	1A	in	1f	in]-
=13-	=13-	=13-	=13-	=13-	=13-
0G	vi-	0B-	vi-	0d	-vi-
1G	-ſi-	1G	-si-	1d	-ſi-
=14-	=14-	=14-	=14-	=14-	=14-
1.F	-bi-	1.A	-bi-	1.f	-bi-
2F\	-li-	2A/	-li-	2f\	-li-
1F	-(um)	1A	-(um)	1f	-um
=15-	=15-	=15-	=15-	=15-	=15-
1r	.	1r	.	1r	.
1F	Et	1A	Et	1f	et
1D	in	1A	in	1f	in
=16-	=16-	=16-	=16-	=16-	=16-
0A	U-	0A	u-	0a	u-
1A	-n(um)	1A	-n(um)	1a	-n(um)
=17-	=17-	=17-	=17-	=17-	=17-
0B-	Do-	0B-	Do-	1f	Do-
.	.	.	.	1.g	.
1G	-mi-	1B-	-mi-	.	.
.	.	.	.	2g\	-mi-
=18-	=18-	=18-	=18-	=18-	=18-
0.F	-n(um)	0.c	-n(um)	0.a	-n(um)
=19-	=19-	=19-	=19-	=19-	=19-
2BB-/	Je-	0B-	Je-	0.f	Je-
2C/	.	.	.	.	.
2D/	.	.	.	.	.
2E\	.	.	.	.	.
1F	s(um)	1A	-s(um)	.	.
=20-	=20-	=20-	=20-	=20-	=20-
1G	X-	1G	Chri-	1d	-ſ(um)
0D	.	0A	.	0d	X-
=21-	=21-	=21-	=21-	=21-	=21-
0.GG	-t(um)	0.G	-st(um)	0.d	-t(um)
=22-	=22-	=22-	=22-	=22-	=22-
1.GG	Fi-	1.G	Fi-	1.B-	Fi-
2GG/	-li-	2G/	-li-	2B-/	-li-
!	!	!	!	!LO:SIC:v:t=custos c	!
1GG	-(um)	1G	-(um)	1B-	-u(m)
!	!	!LO:LB:g=original	!	!LO:PB:g=original	!
=23-	=23-	=23-	=23-	=23-	=23-
1.FF	De-	1.A	De-	1.c	De-
2FF/	-i	2F/	-i	2A/	-i
1FF	u-	2G/	u-	2B-/	u-
.	.	2A/	-ni-	2c/	-ni-
=24-	=24-	=24-	=24-	=24-	=24-
1BB-	-ni-	0B-	-ge-	0d	-ge-
1.F	-ge-	.	.	.	.
!	!	!LO:TX:a:t=P:problem:# above	!	!	!
.	.	1A#Xi	-ni-	1c	-ni-
2F\	-ni-	.	.	.	.
=25-	=25-	=25-	=25-	=25-	=25-
1BB-	-t(um)	1B-	-t(um)	1d	-t(um)
1BB-	et	1B-	et	1d	et
1BB-	ex	1B-	ex	1d	ex
=26-	=26-	=26-	=26-	=26-	=26-
1.F	Pa-	0.Any	Pa-	0.c	Pa-
2F\	-tre	.	.	.	.
(2A\	na-	.	.	.	.
2F\)	.	.	.	.	.
=27-	=27-	=27-	=27-	=27-	=27-
1C	-t(um)	1c	-tre	1e-X	-tre
*	*	*lig	*	*	*
1C	an-	1c	na-	0d	na-
!	!	!LO:TX:a:t=P:problem:# above	!	!	!
!	!	!LO:N:acc=#	!	!	!
1C	-te	1Bni	.	.	.
*	*	*Xlig	*	*	*
=28-	=28-	=28-	=28-	=28-	=28-
1.F	o-	0.c	-t(um)	1c	-t(um)
.	.	.	.	1c	an-
2E\	.	.	.	.	.
2D/	.	.	.	1c	-te
2C/	.	.	.	.	.
=29-	=29-	=29-	=29-	=29-	=29-
!	!	!LO:N:vis=00	!	!	!
1.BB-	.	00.r	.	1.f	o-
2BB-/	-mni-	.	.	2eny\	.
1BB-	-a	.	.	2d\	.
.	.	.	.	2c\	.
=30-	=30-	=30-	=30-	=30-	=30-
1r	.	.	.	1.d	.
1GG	an-	.	.	.	.
.	.	.	.	2d\	-mni-
1GG	-te	.	.	1d	-a
=31-	=31-	=31-	=31-	=31-	=31-
!	!	!LO:N:vis=00	!	!	!
1.G	o-	00.r	.	1r	.
.	.	.	.	1d	an-
2F\	.	.	.	.	.
2E\	.	.	.	1d	-te
2D\	.	.	.	.	.
=32-	=32-	=32-	=32-	=32-	=32-
1.C	.	.	.	1.e	om-
2C/	-mni-	.	.	2f\	-ni-
1BB-	-a	.	.	1g	-a
=33-	=33-	=33-	=33-	=33-	=33-
!	!	!LO:N:vis=00	!	!	!
0D	Sae-	00.r	.	0g	ſae-
!	!	!	!	!LO:TX:a:t=P:problem:# above	!
1D	-cu-	.	.	1f#Xi	-cu-
=34-	=34-	=34-	=34-	=34-	=34-
0.GG	-la	.	.	0.g	-la
!	!	!	!	!LO:LB:g=original	!
=35-	=35-	=35-	=35-	=35-	=35-
!	!	!LO:N:vis=00	!	!	!
1G	De-	00.r	.	1d	De-
1G	-(um)	.	.	1d	-(um)
1G	de	.	.	1d	de
=36-	=36-	=36-	=36-	=36-	=36-
1.C	De-	.	.	1e	De-
.	.	.	.	1e	-o
2C/	-o	.	.	.	.
1C	lu-	.	.	1e	lu-
=37-	=37-	=37-	=37-	=37-	=37-
!	!	!LO:N:vis=00	!	!	!
0F	-men	00.r	.	0c	-men
!LO:SIC:v:t=custos BB	!	!	!	!	!
1F	de	.	.	1c	de
=38-	=38-	=38-	=38-	=38-	=38-
1.BB-	lu-	.	.	1.d	lu-
2BB-/	-mi-	.	.	2d\	-mi-
1BB-	-ne	.	.	1d	-ne
=39-	=39-	=39-	=39-	=39-	=39-
!	!	!LO:N:vis=00	!	!	!
0BB-	De-	00.r	.	0d	De-
1F	-(um)	.	.	1c	-(um)
=40-	=40-	=40-	=40-	=40-	=40-
1G	ve-	.	.	1B-	ve-
1G	-r(um)	.	.	1B-	-rum
1D	de	.	.	1A	de
=41-	=41-	=41-	=41-	=41-	=41-
!	!	!LO:N:vis=0	!	!	!
1.GG	De-	0.r	.	1.B-	De-
2GG/	-o	.	.	2B-/	-o
!LO:TX:t=P:problem:kreska pseudotaktowa	!	!	!	!	!
1D	ve-	.	.	1A	ve-
=42-	=42-	=42-	=42-	=42-	=42-
1GG	-ro	1r	.	1B-	-ro
*col	*	*	*	*	*
1.G	Ge-	1d	Ge-	1g	ge-
.	.	1d	-ni-	1g	-ni-
*Xcol	*	*	*	*	*
!LO:TX:t=P:problem:kreska pseudotaktowa	!	!	!	!	!
2G\	-ni-	.	.	.	.
=43-	=43-	=43-	=43-	=43-	=43-
0C	-t(um)	0c	-t(um)	0g	-tum
1C	n(on)	1c	non	1g	n(on)
=44-	=44-	=44-	=44-	=44-	=44-
0GG	fac-	0d	fac-	0g	fac-
1GG	-t(um)	1d	-t(um)	1g	-t(um)
=45-	=45-	=45-	=45-	=45-	=45-
1r	.	1r	.	1r	.
1BB-	Con-	1d	Con-	1fny	con-
1BB-	-ſub-	1d	-ſub-	1f	-sub-
!	!	!LO:LB:g=original	!	!LO:LB:g=original	!
=46-	=46-	=46-	=46-	=46-	=46-
1.E-X	-stan-	1.B-	-stan-	1.d	-ſtan-
2E-\	-ti-	2B-\	-ti-	2d\	-ti-
1C	-a-	1c	-a-	1e	-a-
=47-	=47-	=47-	=47-	=47-	=47-
1BB-	-l(em)	1d	-lem	1f	-l(em)
0F	Pa-	0c	Pa-	0f	Pa-
=48-	=48-	=48-	=48-	=48-	=48-
1BB-	-tri	1B-	-tri	1f	-tri
1BB-	per	1F	per	1f	p(er)
1FF	q(uem)	1A	q(uem)	1f	q(uem)
=49-	=49-	=49-	=49-	=49-	=49-
1.GG	o-	1.B-	o(mni-	1.d	om-
2GG/	-mni-	2d\	-a)	2d\	-(ni-
1D	-a	1d	fa-	1d	-a)
=50-	=50-	=50-	=50-	=50-	=50-
1BB-	fa-	1d	.	1d	fa-
1C	.	1c	.	(>1e-X	-cta
1D	-cta	1A	-cta	1d)	.
=51-	=51-	=51-	=51-	=51-	=51-
0.GG	sunt	0B-	s(un)t	0d	s(un)t
.	.	1G	q(ui)	1B-	q(ui)
=52-	=52-	=52-	=52-	=52-	=52-
1%3r	.	1D	pro-	1A	pro-
.	.	1D	-pter	1A	-pter
.	.	1D	nos	1A	nos
=53-	=53-	=53-	=53-	=53-	=53-
1%3r	.	1.G	h(o-	1.B-	h(o-
.	.	2G/	-mi)-	2B-/	-mi-
.	.	1G	-nes	1B-	-n)es
=54-	=54-	=54-	=54-	=54-	=54-
1%3r	.	1G	et	1d	et
.	.	1G	pro-	1d	pr(op-
!	!	!LO:SIC:v:t=custos E	!	!	!
.	.	1F	-pter	1d	-ter)
!	!	!LO:LB:g=original	!	!	!
=55-	=55-	=55-	=55-	=55-	=55-
1%3r	.	1Eny	nos-	1g	nos-
.	.	1E	-tr(am)	1g	-tram
.	.	1D	Sa-	1f	Sa-
=56-	=56-	=56-	=56-	=56-	=56-
1%3r	.	0.F	-lu-	0.f	-lu-
!	!	!	!	!LO:LB:g=original	!
=57-	=57-	=57-	=57-	=57-	=57-
1%3r	.	0B-	-tem	0.f	-t(em)
.	.	1B-	de-	.	.
=58-	=58-	=58-	=58-	=58-	=58-
1%3r	.	1.G	-sccen-	1r	.
.	.	.	.	1r	.
.	.	2G/	.	.	.
.	.	2A\	.	1d	de-
.	.	2F/	.	.	.
=59-	=59-	=59-	=59-	=59-	=59-
1%3r	.	1c	.	1.eny	-scen-
.	.	1c	-dit	.	.
.	.	.	.	2f\	.
.	.	1A	de	2g\	.
.	.	.	.	2e\	.
=60-	=60-	=60-	=60-	=60-	=60-
1%3r	.	1.F	scen-	0.a	.
.	.	2G/	.	.	.
.	.	2A/	.	.	.
.	.	2G/	.	.	.
=61-	=61-	=61-	=61-	=61-	=61-
1%3r	.	1B-	.	0f	-d(it)
.	.	1B-	-dit	.	.
.	.	1F	de	1a	de-
=62-	=62-	=62-	=62-	=62-	=62-
1%3r	.	1G	cae-	1d	-scen-
.	.	1G	-lis	1d	-dit
*	*	*	*	*	*ij
.	.	1d	de	1f	de
=63-	=63-	=63-	=63-	=63-	=63-
1%3r	.	1e-X	Cae-	1B-	scen-
.	.	1e-	-lis	1B-	dit
*	*	*	*	*	*Xij
.	.	1B-	de	1d	.
=64-	=64-	=64-	=64-	=64-	=64-
!	!	!LO:TX:a:t=P:w źródle fragment tekstu nieczytelny:problem	!	!	!
1%3r	.	1c	.	1.c	de-
.	.	0d	.	.	.
.	.	.	.	2B-/	-cae-
.	.	.	.	1A	.
=65-	=65-	=65-	=65-	=65-	=65-
1%3r	.	0.G	.	0.B-	-lis
!	!	!LO:PB:g=original	!	!	!
=66-	=66-	=66-	=66-	=66-	=66-
*	*	*M3/1	*	*M3/1	*
!	!	!	!	!LO:TX:t=P:problem:w źródle inicjał E przed oznaczeniem metrum	!
!	!	!LO:TX:t=P:problem:w źródle inicjał E przed oznaczeniem metrum	!	!	!
1GG	Et	1d	Et	1g	Et
1GG	in-	1d	in-	1d	in-
1GG	-car-	1d	-car-	1g	-car-
=67-	=67-	=67-	=67-	=67-	=67-
0D	-na-	0d	-na-	0g	-na-
1D	-t(us)	1d	-t(us)	1d	-t(us)
!	!	!	!	!LO:LB:g=original	!
=68-	=68-	=68-	=68-	=68-	=68-
0G	eſt	0d	eſt	1.d	eſt
.	.	.	.	2c/	.
1G	de	1B-	de	2d\	de
.	.	.	.	2e\	.
=69-	=69-	=69-	=69-	=69-	=69-
0F	Spi-	1.c	spi-	1.f	Spi-
.	.	2c\	-ri-	2f\	-ri-
1D	-ri-	1d	-tu	1f	-tu
=70-	=70-	=70-	=70-	=70-	=70-
1E-X	-tu	0.c	San-	1g	San-
0F	San-	.	.	0f	-cto
=71-	=71-	=71-	=71-	=71-	=71-
0.BB-	-cto	0.d	-cto	0.f	ex
=72-	=72-	=72-	=72-	=72-	=72-
0B-	Ex	0B-	ex	0f	Ma-
1F	Ma-	1A	Ma-	1f	-ri-
=73-	=73-	=73-	=73-	=73-	=73-
0G	-ri-	0B-	-ri-	0d	-a
1D	-a	1d	-a	1d	Vir-
=74-	=74-	=74-	=74-	=74-	=74-
1.E	Vir-	1.B-	Vir-	1.B-	.
2E\	-gi-	2B-\	-gi-	2B-/	-gi-
1BB-	-ne	1d	-ne	1d	-ne-
=75-	=75-	=75-	=75-	=75-	=75-
1.C	et	1c	et	1.e	-et
.	.	1c	ho-	.	.
2C/	ho-	.	.	2e\	ho-
1GG	-(mo)	1B-	-mo	1g	.
=76-	=76-	=76-	=76-	=76-	=76-
0D	fac-	0A	fac-	1g	-mo
!	!	!	!	!LO:N:vis=0	!
.	.	.	.	1g	fac-
!	!	!	!	!LO:TX:a:t=P:problem:# above	!
1D	-t(us)	1A	-t(us)	1f#Xi	-t(us)
=77-	=77-	=77-	=77-	=77-	=77-
0.GG	e(st)	0.B-	est	0.g	e(st)
=78-	=78-	=78-	=78-	=78-	=78-
*M2/2	*	*M2/2	*	*M2/2	*
*met(c|)	*	*met(c|)	*	*met(c|)	*
2.D/	Cru-	2.d\	Cru-	2.fny\	[Cru-
!	!	!	!	!LO:TX:a:t=P:w źródle nuta zahacza o drugą stronę:problem	!
4D/	-ci-	4d\	-ci-	4f\	-ci]-
!	!	!	!	!LO:LB:g=original	!
=79-	=79-	=79-	=79-	=79-	=79-
2D/	-fi-	2d\	-fi-	2f\	-fi-
2C/	-x(us)	2e\	-x(us)	2e\	-x(us)
=80-	=80-	=80-	=80-	=80-	=80-
!	!	!	!	!LO:SIC:v:s=2.f\:t=jedna z możliwych opcji	!
2.F\	e-	2.c\	e-	2.e\	e-
!	!	!	!	!LO:SIC:v:s=4f\:t=jedna z możliwych opcji	!
4F\	-ti-	4c\	-ti-	4d\	-ti-
=81-	=81-	=81-	=81-	=81-	=81-
2E\	-(am)	2e\	-(am)	2e\	-a(m)
2E\	pro	2e\	pro	2g\	pro
=82-	=82-	=82-	=82-	=82-	=82-
2A\	no-	2c\	no-	2e\	no-
4F\	-bis	2c\	-bis	2f\	-bis
4F\	p(ro)	.	.	.	.
=83-	=83-	=83-	=83-	=83-	=83-
1B-	no-	2d\	sub	2f\	sub
.	.	1d\	Pon-	4f\	Pon-
.	.	.	.	4g\	-ti-
=84-	=84-	=84-	=84-	=84-	=84-
1A	-bis	.	.	2a\	-o
.	.	2c\	.	2e\	Pi-
=85-	=85-	=85-	=85-	=85-	=85-
4D/	sub	4d\	ti-	[2f\	-la-
2BB-/	Pon-	2.B-\	-o	.	.
.	.	.	.	2f\]	-to
4BB-/	-ti-	.	.	.	.
=86-	=86-	=86-	=86-	=86-	=86-
2E-X\	-o	1B-	Pi-	2e-X\	[[sub
2D/	Pi-	.	.	2f\	Pon-
=87-	=87-	=87-	=87-	=87-	=87-
2.F\	-la-	2B-\	-la-	(>2.f\	-ti-
.	.	2A\	-to	.	.
4F\	-to	.	.	4f\)	-o]]
=88-	=88-	=88-	=88-	=88-	=88-
2BB-/	paſ-	2B-\	Paſ-	2f\	.
2GG/	-sus	2d\	-sus	2g\	Pi-
=89-	=89-	=89-	=89-	=89-	=89-
2BB-/	et	2d\	et	2d\	-la-
2C/	se-	2c\	se-	2eny\	-to
=90-	=90-	=90-	=90-	=90-	=90-
!	!	!	!	!LO:TX:a:t=P:problem:# above	!
1.D	-pul-	1B-	-pul-	2f#Xi\	paſ-
.	.	.	.	1g	-s(us)
=91-	=91-	=91-	=91-	=91-	=91-
.	.	2.A/	.	.	.
!	!	!	!	!LO:TX:a:t=P:problem:# above	!
2D/	-tus	.	.	2f#Xi\	et
.	.	4A/	-t(us)	.	.
=92-	=92-	=92-	=92-	=92-	=92-
1GG	e(st)	1G	eſt	1g	.
!	!	!	!	!LO:LB:g=original	!
=93-	=93-	=93-	=93-	=93-	=93-
*M3/1	*	*M3/1	*	*M3/1	*
!	!	!	!	!LO:TX:a:t=P:w źródle przed oznaczeniem metrum nuta 1c [pomyłka skryptora]:problem	!
1C	et	1c	Et	1e-X	Et
2C/	re-	2c\	re-	2e-\	re-
2C/	-ſur-	2c\	-ſur-	2e-\	-ſur-
2GG/	-re-	2B-\	-re-	2d\	-re-
2GG/	-xit	2B-\	-xit	2d\	-xit
=94-	=94-	=94-	=94-	=94-	=94-
1C	ter-	1c	ter-	1eny	ter-
2C/	-ti-	2c\	-ti-	2e\	-ti-
2GG/	-a	2d\	-a	2g\	-a
1D	di-	1d	di-	1fny	di-
=95-	=95-	=95-	=95-	=95-	=95-
0.GG	-e	0.d	-e	0.g	-e
=96-	=96-	=96-	=96-	=96-	=96-
*	*ij	*	*ij	*	*ij
1G	et	1d	Et	1g	Et
2G\	re-	2d\	re-	2g\	re-
2G\	-ſur-	2c\	-ſur-	2g\	-ſur-
2F\	-re-	2d\	-re-	2a\	-re-
2F\	-xit	2d\	-xit	2a\	-xit
=97-	=97-	=97-	=97-	=97-	=97-
1G	ter-	1d	ter-	1g	ter-
2G\	-ti-	2d\	-ti-	2g\	-ti-
2D/	-a	2f\	-a	2f\	-a
1G	di-	1e	di-	1e	di-
=98-	=98-	=98-	=98-	=98-	=98-
0D	-e	0d	-e	0d	-e
*	*Xij	*	*Xij	*	*Xij
1BB-	Se-	1d	Se-	1f	Se-
=99-	=99-	=99-	=99-	=99-	=99-
0E-X	-cun-	1B-	-cun-	0e-X	-cun-
.	.	1c	-d(um)	.	.
1D	-d(um)	1d	Scrip-	1f	-d(um)
=100-	=100-	=100-	=100-	=100-	=100-
1E	Scip-	0.c	-tu-	1g	scrip-
0F	-tu-	.	.	0f	-tu-
=101-	=101-	=101-	=101-	=101-	=101-
!	!	!	!	!LO:N:vis=1	!
1BB-	-raſ	1B-	-r(as)	0f	-ras
1BB-	et	1B-	et	.	.
!	!	!	!	!LO:PB:g=original	!
!	!	!	!	!LO:TX:a:t=P:problem:kreska pseudotaktowa	!
1BB-	aſ-	1B-	aſ-	1f	aſ-
=102-	=102-	=102-	=102-	=102-	=102-
0F	-cen-	0A	-cen-	0f	-cen-
!	!	!	!	!LO:TX:a:t=P:problem:kreska pseudotaktowa	!
1F	-dit	1A	-dit	1f	-dit
=103-	=103-	=103-	=103-	=103-	=103-
1r	.	1r	.	1r	.
*	*	*	*ij	*	*ij
1C	et	1c	et	1d	aſ-
1C	aſ-	1c	aſ-	1d	-cen-
=104-	=104-	=104-	=104-	=104-	=104-
0F	-cen-	0B-	-cen-	0g	.
1G	-dit	1B-	-dit	1g	-dit
*	*	*	*Xij	*	*Xij
=105-	=105-	=105-	=105-	=105-	=105-
1r	.	1r	.	1r	.
*	*ij	*	*ij	*	*ij
1D	et	1d	aſ-	1f	aſ-
1D	aſ-	1d	-cen-	1f	-cen-
=106-	=106-	=106-	=106-	=106-	=106-
1A	-cen-	0.c	-dit	1e#X	.
1A	-dit	.	.	1e#	-dit
*	*Xij	*	*	*	*Xij
1A	in	.	.	1e#	in
*	*	*	*Xij	*	*
=107-	=107-	=107-	=107-	=107-	=107-
!LO:SIC:v:s=0.E-	!	!	!	!LO:SIC:v:s=0.e-	!
0.E	Cae-	1B-	in	0.eny	Cae-
.	.	0B-	Cae-	.	.
=108-	=108-	=108-	=108-	=108-	=108-
!	!	!	!	!LO:SIC:v:s=0.e-	!
0.A	-l(um)	0.c	-lum	0.e	-l(um)
=109-	=109-	=109-	=109-	=109-	=109-
1F	Se-	1.A	Se-	1f	Se-
1F	-det	.	.	1.f	-det
.	.	2A/	-det	.	.
1C	ad	1G	ad	.	.
.	.	.	.	2e\	ad
=110-	=110-	=110-	=110-	=110-	=110-
1.F	dex-	1.A	dex-	1.f	dex-
2F\	-te-	2A/	-te-	2f\	-te-
1F	-r(am)	1A	-ram	1f	-r(am)
=111-	=111-	=111-	=111-	=111-	=111-
*	*ij	*	*ij	*	*ij
1D	dex-	1d	Se-	1f	se-
1D	-te-	1d	-det	1f	-det
1AA	-r(am)	1c	ad	1e	ad
*	*Xij	*	*	*	*
=112-	=112-	=112-	=112-	=112-	=112-
*	*ij	*	*	*	*
1.D	dex-	1.d	dex-	1.f	dex-
2D/	-te-	2d\	-te-	2f\	-te-
!	!	!	!	!LO:SIC:v:t=custos d	!
1D	-r(am)	1d	-ram	1f	-r(am)
*	*Xij	*	*Xij	*	*Xij
!	!	!	!	!LO:LB:g=original	!
=113-	=113-	=113-	=113-	=113-	=113-
1BB-	Pa-	1d	Pa-	1d	Pa-
1C	.	1c	.	(>1e-X	.
1D	.	1A	.	1d)	.
=114-	=114-	=114-	=114-	=114-	=114-
0GG	-tris	0B-	-tris	0d	-triſ
1GG	et	1G	et	1G	et
=115-	=115-	=115-	=115-	=115-	=115-
1.G	i-	1.G	i-	1.B-	i-
2G\	-te-	2G/	-te-	2B-/	-te-
1F	-r(um)	1A	-r(um)	1c	-r(um)
=116-	=116-	=116-	=116-	=116-	=116-
1G	ven-	1G	ven-	1B-	ven-
1.E-X	-tu-	1G	-tu-	1.c	-tu-
.	.	1G	-r(us)	.	.
2E-\	-r(us)	.	.	2c/	-r(us)
=117-	=117-	=117-	=117-	=117-	=117-
0D	eſt	0F	eſt	0d	e(st)
1D	c(um)	1F	c(um)	1A	c(um)
=118-	=118-	=118-	=118-	=118-	=118-
1.G	glo-	1.G	glo-	1.B-	glo-
2G\	-ri-	2G/	-ri-	2B-/	-ri-
2G\	-am	2G/	-a	2B-/	-a
2G\	c(um)	2G/	c(um)	2B-/	c(um)
=119-	=119-	=119-	=119-	=119-	=119-
1.F	glo-	1.A	glo-	1.c	gl(o-
2F\	-(ri-	2A/	-ri-	2c/	-ri-
1F	-am)	1A	-a	1c	-a)
=120-	=120-	=120-	=120-	=120-	=120-
0F	Ju-	1r	.	0c	ju-
.	.	1A	ju-	.	.
1D	-di-	1d	-di-	1f	-di-
=121-	=121-	=121-	=121-	=121-	=121-
0AA	-ca-	0c	-ca-	0eny	-ca-
1AA	-re	1A	-re	1c	-re
=122-	=122-	=122-	=122-	=122-	=122-
1BB-	vi-	0.B-	vi-	1d	vi-
0GG	.	.	.	0e	-vos
=123-	=123-	=123-	=123-	=123-	=123-
0.FF	-vos	0A	-vos	0f	vi-
.	.	1A	et	1c	.
=124-	=124-	=124-	=124-	=124-	=124-
2BB-/	et	0B-	mor-	0d	-vis
2C/	.	.	.	.	.
2D/	.	.	.	.	.
2E/	.	.	.	.	.
1F	.	1A	.	1c	et
!	!	!	!	!LO:LB:g=original	!
=125-	=125-	=125-	=125-	=125-	=125-
1G	.	1G	.	1B-	mor-
1.D	mor-	1.F	.	1.A	.
2D/	-tu-	2F/	-tu-	2A/	-tu-
=126-	=126-	=126-	=126-	=126-	=126-
1GG	-os	0.G	-os.	1G	-os
1G	Cu-	.	.	1d	Cu-
1G	-i(us)	.	.	1d	-i(us)
=127-	=127-	=127-	=127-	=127-	=127-
1G	Re-	1%3r	.	1d	Re-
1G	-gni	.	.	1d	-gni
1F#X	n(on)	.	.	1d	n(on)
=128-	=128-	=128-	=128-	=128-	=128-
1G	e-	1%3r	.	1d	e-
1G	-rit	.	.	1d	-rit
1D	n(on)	.	.	1f	n(on)
=129-	=129-	=129-	=129-	=129-	=129-
0E-X	e-	1%3r	.	0g	e-
1BB-	-rit	.	.	1f	-rit
=130-	=130-	=130-	=130-	=130-	=130-
1.C	Fi-	1%3r	.	1e-X	non
.	.	.	.	1f	e-
2D/	.	.	.	.	.
1E-X	.	.	.	1g	-rit
=131-	=131-	=131-	=131-	=131-	=131-
1C	.	1%3r	.	0g	fi-
0D	.	.	.	.	.
!	!	!	!	!LO:TX:a:t=P:problem:# above	!
.	.	.	.	1f#Xi	.
=132-	=132-	=132-	=132-	=132-	=132-
0.GG	-nis	1%3r	.	0.g	-nis
=133-	=133-	=133-	=133-	=133-	=133-
1r	.	1%3r	.	1r	.
1D	cu-	.	.	1a	Cu-
1D	-i(us)	.	.	1a	-i(us)
=134-	=134-	=134-	=134-	=134-	=134-
1D	Re-	1%3r	.	1a	Re-
1D	-gni	.	.	1a	-gni
1C#X	n(on)	.	.	1a	n(on)
=135-	=135-	=135-	=135-	=135-	=135-
1D	e-	1%3r	.	0a	e-
1D	-rit	.	.	.	.
1AA	n(on)	.	.	1a	-rit
!	!	!	!	!LO:LB:g=original	!
=136-	=136-	=136-	=136-	=136-	=136-
1.BB-	e-	1%3r	.	1g	non
.	.	.	.	1g	e-
2C/	.	.	.	.	.
1D	-rit	.	.	1fny	-rit
=137-	=137-	=137-	=137-	=137-	=137-
1GG	fi-	1%3r	.	1g	fi-
0AA	.	.	.	0eny	.
=138-	=138-	=138-	=138-	=138-	=138-
0D	-nis	1%3r	.	1f	-niſ
.	.	.	.	0f	n(on)
1BB-	n(on)	.	.	.	.
=139-	=139-	=139-	=139-	=139-	=139-
0BB-	e-	1%3r	.	1f	e-
.	.	.	.	0f	-rit
1AA	-rit	.	.	.	.
=140-	=140-	=140-	=140-	=140-	=140-
1BB-	fi-	1%3r	.	0f	fi-
0C	.	.	.	.	.
!	!	!	!	!LO:TX:a:t=P:problem:# above	!
.	.	.	.	1e#Xi	.
=141-	=141-	=141-	=141-	=141-	=141-
1FF	-nis	1r	.	1f	-nis
1F	Et	1A	Et	1f	Et
1F	in	1A	in	1f	in
=142-	=142-	=142-	=142-	=142-	=142-
1.D	Spi-	1.A	Spi-	1.f	Spi-
2D/	-(ri-	2A/	-ri-	2f\	.
1D	-tum)	1A	-t(um)	1f	-ri-
=143-	=143-	=143-	=143-	=143-	=143-
0G	Sa(n-	0B-	San-	0g	-t(um)
1E	-ctum	1c	-ct(um)	1g	Sa-
=144-	=144-	=144-	=144-	=144-	=144-
1.G	Do-	1.B-	Do-	1.g	.
2G\	-(mi-	2B-\	-mi-	2g\	.
1C	-num)	1c	-n(um)	1g	-ct(um)
=145-	=145-	=145-	=145-	=145-	=145-
1.F	et	1.A	-Et	1.f	Et
2F\	vi-	2A/	vi-	2f\	vi-
2D/	-vi-	2G/	-vi-	2eny\	-vi-
2C/	-fi-	2G/	-fi-	2e\	-fi-
=146-	=146-	=146-	=146-	=146-	=146-
0D	-can-	0F	-can-	0d	-can-
1AA	-tem	1c	-t(em)	1c	-t(em)
!	!	!	!	!LO:LB:g=original	!
=147-	=147-	=147-	=147-	=147-	=147-
*	*	*	*	*	*ij
1.D	/et	1.d	/Et	1.f	Et
2D/	vi-	2d\	vi-	2f\	vi-
2AA/	-vi-	2c\	-vi-	2e\	-vi-
2AA/	-fi-	2c\	-fi-	2e\	-fi-
=148-	=148-	=148-	=148-	=148-	=148-
0BB-	-can-	0B-	-can-	0d	-ca-
1FF	-tem	1A	-t(em)	1c	.
=149-	=149-	=149-	=149-	=149-	=149-
1.GG	et	1.B-	Et	1.d	.
2AA/	vi-	2c\	vi-	2d\	.
1BB-	-vi-	1d	-vi-	1d	.
=150-	=150-	=150-	=150-	=150-	=150-
1GG	-fi-	1d	-fi-	1g	.
0AA	-can-	1d	-can-	0e	.
.	.	1c#X	.	.	.
=151-	=151-	=151-	=151-	=151-	=151-
1D	-tem/	1d	-t(em)	0.f	-tem
1D	qui	1A	qui	.	.
1D	ex	1A	ex	.	.
*	*	*	*	*	*Xij
=152-	=152-	=152-	=152-	=152-	=152-
!	!	!	!	!LO:N:vis=00	!
0GG	Pa-	0B-	Pa-	00.r	.
1GG	-tre	1B-	-tre	.	.
=153-	=153-	=153-	=153-	=153-	=153-
1.FF	Fi-	1.c	Fi-	.	.
2FF/	-li-	2c\	-li-	.	.
1FF	-o-	2c\	-o-	.	.
.	.	2c\	-que	.	.
=154-	=154-	=154-	=154-	=154-	=154-
!	!	!	!	!LO:N:vis=00	!
0BB-	-(que)	0d	pro-	00.r	.
1GG	pro	1B-	.	.	.
=155-	=155-	=155-	=155-	=155-	=155-
0.FF	ce-	0.c	-ce-	.	.
=156-	=156-	=156-	=156-	=156-	=156-
1BB-	-dit	1B-	-dit	1r	.
1BB-	qui-	1B-	qui-	1d	qui
1BB-	-c(um)	1B-	-c(um)	1d	c(um)
=157-	=157-	=157-	=157-	=157-	=157-
1FF	Pa-	1A	Pa-	1c	Pa-
1FF	-tre	1A	-tre	1c	-tre
1C	et	1c	et	1e-X	et
=158-	=158-	=158-	=158-	=158-	=158-
0F	Fi-	0c	Fi-	0d	Fi-
!	!	!LO:N:acc=#	!	!	!
1G	-li-	1Bn	-li-	1d	-li-
=159-	=159-	=159-	=159-	=159-	=159-
1C	-o	1c	-o	1c	-o
1r	.	1c	Si-	1c	Si-
1r	.	1c	-mul	1c	-mul
=160-	=160-	=160-	=160-	=160-	=160-
1%3r	.	0c	a-	0f	a-
.	.	1A	-do-	1c	-do-
=161-	=161-	=161-	=161-	=161-	=161-
1%3r	.	0.G	-rat(ur)	0.d	-ra-
=162-	=162-	=162-	=162-	=162-	=162-
1r	.	0G	et	0.d	-tur
1r	.	.	.	.	.
1C	et	1G	Con-	.	.
!	!	!	!	!LO:LB:g=original	!
=163-	=163-	=163-	=163-	=163-	=163-
!	!	!	!	!LO:TX:a:t=P:w źródle pauza wytarta:problem	!
!	!	!	!	!LO:N:vis=0	!
0GG	Con-	0B-	-glo-	00.r	.
1AA	-glo-	1A	-ri-	.	.
=164-	=164-	=164-	=164-	=164-	=164-
0BB-	-ri-	0G	-fi-	.	.
1C	-fi-	1G	-ca-	.	.
=165-	=165-	=165-	=165-	=165-	=165-
!	!	!	!	!LO:TX:a:t=P:w źródle pauza wytarta:problem	!
0.D	-ca-	0.F	-tur	0.r	.
=166-	=166-	=166-	=166-	=166-	=166-
1D	-t(ur)	1F	qui	1r	.
1BB-	qui	0D	lo-	1f	qui
1BB-	lo-	.	.	1f	lo-
=167-	=167-	=167-	=167-	=167-	=167-
0BB-	-cu-	0d	-cu-	0f	-cu-
1FF	-t(us)	1c	-t(us)	1f	t(us)
=168-	=168-	=168-	=168-	=168-	=168-
1BB-	eſt	1d	eſt	1d	est
*	*	*	*	*	*ij
1GG	lo-	1B-	qui	1d	qui
1G	-cu-	1B-	lo-	1d	lo-
=169-	=169-	=169-	=169-	=169-	=169-
0G	-t(us)	0B-	-cu-	0g	-cu-
1D	e(st)	1A	-t(us)	1f	-t(us)
=170-	=170-	=170-	=170-	=170-	=170-
1G	p(er)	1B-	e(st)	1g	est
*	*	*	*	*	*Xij
1G	pro-	1d	p(er)	1d	per
1F	-phe-	1d	pro-	1f	Pro-
=171-	=171-	=171-	=171-	=171-	=171-
0.E-X	.	0d	-phe-	0.g	-phe-
.	.	1c#X	.	.	.
=172-	=172-	=172-	=172-	=172-	=172-
0.D	-tas	0.d	-t(as)	0.f	-tas
=173-	=173-	=173-	=173-	=173-	=173-
1BB-	et	1d	et	1f	-Et
1D	u-	1d	u-	1f	U-
1F	-n(am)	1c	-n(am)	1f	-n(am)
=174-	=174-	=174-	=174-	=174-	=174-
1.BB-	san-	1d	S(an)-	1f	San-
.	.	1d	-ct(am)	1f	-ct(am)
2BB-/	-ct(am)	.	.	.	.
1FF	Ca-	1c	Ca-	1f	Ca-
=175-	=175-	=175-	=175-	=175-	=175-
1.BB-	-tho-	1.d	-tho-	1.f	-tho-
2BB-/	-li-	2d\	-li-	2f\	-li-
1BB-	-c(am)	1d	-c(am)	1f	-c(am)
=176-	=176-	=176-	=176-	=176-	=176-
1G	Et	1d	et	1g	et
1G	a-	1B-	a-	1g	a-
1D	-po-	1d	-po-	1f	-po-
!	!	!	!	!LO:LB:g=original	!
=177-	=177-	=177-	=177-	=177-	=177-
!	!	!	!	!LO:TX:a:t=P:w źródle fragment tekstu nieczytelny:problem	!
1.G	-sto-	1.d	-sto-	1.g	-[sto-
2G\	-li-	2d\	-li-	2g\	-li-
1G	-c(am)	1d	-c(am)	1g	-cam]
=178-	=178-	=178-	=178-	=178-	=178-
*	*	*	*	*	*ij
1E-X	/et	1e-X	/et	1g	et
1E-	a-	1B-	a-	1g	a-
1BB-	-po-	1d	-po-	1f	-po-
=179-	=179-	=179-	=179-	=179-	=179-
1.E-X	-sto-	1.e-X	-sto-	1.e-X	-sto-
2E-\	-li-	2e-\	-li-	2e-\	-li-
1E-	-c(am)	1e-	-c(am)/	(>2e-\	-cam
.	.	.	.	2f\)	.
*	*	*	*	*	*Xij
=180-	=180-	=180-	=180-	=180-	=180-
1C	ec-	1e-X	Ec-	1g	Ec-
1.D	-cle-	1.d	-cle-	1.g	-cle-
2D/	-si-	2d\	-si-	2f#X\	-ſi-
=181-	=181-	=181-	=181-	=181-	=181-
0GG	-(am)	0d	-(am)	0g	-(am)
!LO:TX:t=P:problem:kreska pseudotaktowa	!	!	!	!	!
1G	Con-	1G	Con-	1d	-Con-
=182-	=182-	=182-	=182-	=182-	=182-
1.G	-fi-	1.B-	-fi-	1.d	-fi-
2G\	-te-	2B-\	-te-	2d\	-te-
1F	-or	1c	-or	1fny	-or
=183-	=183-	=183-	=183-	=183-	=183-
1G	/Con-	1B-	Con-	1d	con-
1.E-X	-fi-	1.c	-fi-	1.g	-fi-
2E-\	-te-	2c\	-te-	2g\	-te-
=184-	=184-	=184-	=184-	=184-	=184-
0D	-or/	0d	-or	0f	-or
1D	U-	1A	U-	1f	U-
=185-	=185-	=185-	=185-	=185-	=185-
0G	-n(um)	0B-	-n(um)	0d	-n(um)
1G	bap-	1B-	bap-	1eny	Bap-
=186-	=186-	=186-	=186-	=186-	=186-
0.F	-tiſ-	0.c	-tiſ-	0.f	-tis-
=187-	=187-	=187-	=187-	=187-	=187-
0.F	-ma	0.c	-ma	0.f	-ma
!	!	!	!	!LO:PB:g=original	!
=188-	=188-	=188-	=188-	=188-	=188-
1.F	In	1.F	in	1.A	in
2D\	re-	2F/	re-	2A/	re-
2F\	-miſ-	2F/	-miſ-	2A/	-miſ-
2D/	-si-	2F/	-si-	2A/	-si-
=189-	=189-	=189-	=189-	=189-	=189-
0GG	-o-	0G	-o-	0B-	-o-
1G	-ne	1G	-ne	1B-	-ne
=190-	=190-	=190-	=190-	=190-	=190-
*	*ij	*	*ij	*	*ij
1.F	In	1.A	in	1.c	in
2F\	re-	2A/	re-	2c/	re-
2F\	-miſ-	2A/	-miſ-	2c/	-miſ-
2F\	-si-	2A/	-si-	2c/	-si-
=191-	=191-	=191-	=191-	=191-	=191-
0BB-	-o-	0B-	-o-	0d	-o-
1BB-	-ne	1B-	-ne	1d	-ne
*	*Xij	*	*Xij	*	*Xij
=192-	=192-	=192-	=192-	=192-	=192-
*	*ij	*	*ij	*	*ij
1.BB-	In	1.d	in	1.f	in
2BB-/	re-	2d\	re-	2f\	re-
2BB-/	-miſ-	2d\	-miſ-	2f\	-miſ-
2BB-/	-si-	2d\	-si-	2f\	-si-
=193-	=193-	=193-	=193-	=193-	=193-
1BB-	-o-	1B-	-o-	1.d	-o-
1BB-	-ne	1B-	-ne	.	.
.	.	.	.	2d\	-ne
*	*Xij	*	*Xij	*	*Xij
1FF	pec-	1A	pec-	1c	pec-
=194-	=194-	=194-	=194-	=194-	=194-
1GG	-ca-	1G	-ca-	1d	-ca-
0D	-to-	0F#X	-to-	0d	-to-
=195-	=195-	=195-	=195-	=195-	=195-
1GG	-r(um)	1G	-r(um)	1d	-r(um)
1GG	et	1B-	et	1d	et
1GG	ex-	1B-	ex-	1d	ex-
=196-	=196-	=196-	=196-	=196-	=196-
0C	-pec-	0c	-pec-	0e-X	-pec-
1C	-to	1c	-to	1e-	-to
!	!	!	!	!LO:LB:g=original	!
=197-	=197-	=197-	=197-	=197-	=197-
1.F	re-	1.A	re-	1.c	re-
2F\	-ſur-	2F/	-ſur-	2A/	-ſur-
2F\	-re-	2G/	-re-	2B-/	-re-
2F\	-cti-	2A/	-cti-	2c/	-cti-
=198-	=198-	=198-	=198-	=198-	=198-
0BB-	-o-	0B-	-o-	0d	-o-
1BB-	-ne	1B-	-n(em)	1d	-n(em)
=199-	=199-	=199-	=199-	=199-	=199-
*	*ij	*	*ij	*	*ij
1.GG	re-	1.G	re-	1.B-	re-
2AA/	-ſur-	2E/	-ſur-	2G/	-ſur-
2BB-/	-re-	2F/	-re-	2A/	-re-
2GG/	-cti-	2G/	-cti-	2B-/	-cti-
=200-	=200-	=200-	=200-	=200-	=200-
1C	-o-	1.A	-o-	1.c	-o-
1.C	-ne(m)	.	.	.	.
.	.	2G/	-n(em)	2c/	-nem
*	*	*	*Xij	*	*Xij
.	.	1F	mor-	1A	mor-
*	*Xij	*	*	*	*
2D/	mor-	.	.	.	.
=201-	=201-	=201-	=201-	=201-	=201-
1GG	-tu-	1G	-tu-	1B-	-tu-
0D	-o-	0F	-o-	0A	-o-
=202-	=202-	=202-	=202-	=202-	=202-
0GG	-rum	0G	-r(um)	0G	-r(um)
1G	et	1B-	et	1d	Et
=203-	=203-	=203-	=203-	=203-	=203-
1D	vi-	1A	vi-	1d	Vi-
1D	-t(am)	1A	-t(am)	1d	-t(am)
1D	ven-	1A	ven-	1d	Ven-
=204-	=204-	=204-	=204-	=204-	=204-
1G	-tu-	1B-	-tu-	1d	-tu-
1G	-ri	1B-	-ri	1d	-ri
1G	ven-	1B-	ven-	1d	Ven-
=205-	=205-	=205-	=205-	=205-	=205-
0F	-tu-	0c	-tu-	0f	-tu-
1F	-ri	1c	-ri	1f	-ri
=206-	=206-	=206-	=206-	=206-	=206-
1.D	se-	1.d	se-	1.f	Sae-
2D/	-cu-	2d\	-cu-	2f\	-cu-
1D	-li	1d	-li	1f	-li
!	!	!	!	!LO:LB:g=original	!
=207-	=207-	=207-	=207-	=207-	=207-
2BB-/	a-	0d	a-	0f	a-
2C/	.	.	.	.	.
2D/	.	.	.	.	.
2E\	.	.	.	.	.
1F	.	1c	.	1f	-men
=208-	=208-	=208-	=208-	=208-	=208-
1G	.	0B-	.	1d	a-
1C	.	.	.	1e-X	.
1D	.	1A	.	1d	.
=209-	=209-	=209-	=209-	=209-	=209-
0.GG	-men	0.B-	-men	0.d	-men
=210-	=210-	=210-	=210-	=210-	=210-
*	*	*	*	*	*ij
1G	a-	1B-	a-	0d	a-
1F	.	1A	.	.	.
1G	.	1B-	.	1d	-men
*	*	*	*	*	*Xij
=211-	=211-	=211-	=211-	=211-	=211-
1.C	.	1c	.	1.eny	a-
.	.	2G/	.	.	.
2D/	.	2F/	.	2d\	.
1E-X	.	2G/	.	2B-/	.
.	.	2A/	.	2c/	.
=212-	=212-	=212-	=212-	=212-	=212-
1D	.	0B-	.	1d	.
1E-X	.	.	.	0c	.
1F	.	1A	.	.	.
=213-	=213-	=213-	=213-	=213-	=213-
0.BB-	-men	0.B-	-men	0.B-	-men
=214-	=214-	=214-	=214-	=214-	=214-
*	*	*	*	*	*ij
1%3r	.	0B-	/a-	0B-	a-
.	.	1A	.	1c	.
=215-	=215-	=215-	=215-	=215-	=215-
1%3r	.	1.G	.	0.d	-men
.	.	2A/	.	.	.
.	.	1B-	.	.	.
*	*	*	*	*	*Xij
=216-	=216-	=216-	=216-	=216-	=216-
*	*	*	*	*	*ij
1%3r	.	1A	.	1c	a-
.	.	1B-	.	1d	.
.	.	1c	.	1c	.
=217-	=217-	=217-	=217-	=217-	=217-
0.F	a-	0F	.	1c	-men
*	*	*	*	*	*Xij
*	*	*	*	*	*ij
.	.	.	.	1f	a-
.	.	1G	.	1g	.
=218-	=218-	=218-	=218-	=218-	=218-
1.D	.	0d	.	0f	.
2E\	.	.	.	.	.
1F	.	1c	.	1f	-men
*	*	*	*	*	*Xij
!	!	!	!	!LO:LB:g=original	!
=219-	=219-	=219-	=219-	=219-	=219-
*	*	*	*	*	*ij
1E	.	0c	.	1g	a-
1F	.	.	.	1f	.
1G	.	1B-	.	1d	.
=220-	=220-	=220-	=220-	=220-	=220-
1C	.	1c	.	0.e	-men
1C	.	0G	.	.	.
1BB-	.	.	.	.	.
*	*	*	*	*	*Xij
=221-	=221-	=221-	=221-	=221-	=221-
!	!	!LO:SIC:v:s=0c	!	!	!
1.AA	.	0B-	.	1.c	a-
2BB-/	.	.	.	2B-/	.
1C	.	1G	-men/	2A/	.
.	.	.	.	2G/	.
=222-	=222-	=222-	=222-	=222-	=222-
1BB-	.	1d	a-	0B-	.
1C	.	1c	.	.	.
1D	.	1A	.	1A	.
=223-	=223-	=223-	=223-	=223-	=223-
*col	*	*col	*	*col	*
0GG	-men	1.B-	.	0B-	-men
.	.	2A\	.	.	.
*	*	*	*	*	*ij
0G	.	0G	.	0d	a-
=224-	=224-	=224-	=224-	=224-	=224-
.	.	.	.	.	.
0D	.	0A	-men	0f	-men
*	*	*	*	*	*Xij
=225-	=225-	=225-	=225-	=225-	=225-
*	*	*	*	*	*ij
!	!	!	!	!LO:TX:a:t=P:problem:♭ above	!
0E-X	.	1G	a-	1e-i	a-
.	.	1e-X	.	1g	.
0BB-	.	2d\	.	0f	-men
.	.	2c\	.	.	.
*	*	*	*	*	*Xij
=226-	=226-	=226-	=226-	=226-	=226-
.	.	2B-\	.	.	.
.	.	2A\	.	.	.
*	*	*	*	*Xcol	*
0C	.	1G	.	0eny	a-
.	.	1c	-men	.	.
=227-	=227-	=227-	=227-	=227-	=227-
0.GG	.	1.d	a-	1d	-men
.	.	.	.	0g	.
.	.	2c\	.	.	.
.	.	2B-\	.	.	.
*	*	*Xcol	*	*	*
.	.	2A\	.	.	.
=228-	=228-	=228-	=228-	=228-	=228-
0C	.	0G	.	0e-X	.
1BB-	.	1G	-men	1d	.
=229-	=229-	=229-	=229-	=229-	=229-
0.C	.	0.c	A-	0.e-X	.
=230-	=230-	=230-	=230-	=230-	=230-
!	!	!	!	!LO:TX:a:t=P:problem:w źródle fermata bez kropki	!
0.GGl	.	0.dl	-men	0.dl;>	.
==	==	==	==	==	==
*-	*-	*-	*-	*-	*-
!!title: @{OTL};
!!!RDF**kern: > = above
!!!RDF**kern: < = below
!!!RDF**kern: | = vertical stroke
!!!RDF**kern: N = linked
!!!RDF**kern: i = editorial accidental
!!!RDF**kern: l = terminal long
!!!EED: Wojciech Jakubiak-Danek
!!!EST: 2021-07-10
!!!URL-scan: http://repozytorium.nifc.pl/skany/pl-kk-nut--i-10
!!!ONB-nifc: UWAGA: części Mszy: 1. Kyrie, 2. Et in terra, 3. Patrem, 4. Sanctus, 5. Benedictus, 6. Agnus Dei. A (0038-0041), T (0087-0090), B (0136-0139)
!!!ENC: Berenika Jozajtis
!!!END: 2021-06-29
